images/service-1/responsibilities-4.svg

<svg width="75" height="75" viewBox="0 0 75 75" fill="none" xmlns="http://www.w3.org/2000/svg">
<path d="M37.3582 2.34375C36.5845 2.34375 35.8109 2.6001 35.1609 3.11737L33.5221 4.43115C28.0747 8.78906 21.5149 11.3388 14.5569 11.8011L10.3135 12.085C8.38629 12.2131 6.91687 13.884 7.04046 15.8066L7.84613 29.3518C8.76623 42.1097 14.589 53.7552 24.2432 62.146L35.051 71.553C35.7102 72.1207 36.5342 72.4045 37.3582 72.4045C38.1867 72.4045 39.0107 72.1207 39.6653 71.553L50.4822 62.146C60.1319 53.7552 65.9546 42.1051 66.8748 29.3335L67.6804 15.8112C67.7994 13.884 66.33 12.2131 64.4028 12.085L60.1639 11.8011C53.2014 11.3388 46.6416 8.78906 41.1942 4.43115L39.5554 3.11737C38.91 2.6001 38.1318 2.34375 37.3582 2.34375ZM37.3582 4.6875C37.6191 4.6875 37.8754 4.77448 38.0906 4.94842L39.7294 6.26221C45.5567 10.9222 52.5696 13.6459 60.0083 14.1403L64.2518 14.4241C64.8926 14.4653 65.3824 15.0238 65.3412 15.6693L64.5356 29.1779C63.7024 40.7227 58.6442 51.3062 50.2488 59.1843V59.1064C50.2488 58.461 49.7269 57.9346 49.0769 57.9346C48.4315 57.9346 47.905 58.461 47.905 59.1064V61.2808L38.1272 69.7815C37.6923 70.1614 37.0286 70.1614 36.5891 69.7815L26.8113 61.2808V59.1064C26.8113 58.461 26.2894 57.9346 25.6394 57.9346C24.994 57.9346 24.4675 58.461 24.4675 59.1064V59.1843C16.0767 51.3062 11.0139 40.7272 10.1807 29.1916L9.37506 15.6647C9.33844 15.0238 9.82824 14.4653 10.4691 14.4241L14.708 14.1403C22.1512 13.6459 29.1642 10.9222 34.9915 6.26221L36.6257 4.94842C36.8455 4.77448 37.1018 4.6875 37.3582 4.6875ZM37.3582 8.04749C36.8912 8.04749 36.4152 8.18481 36.0169 8.46863L33.0048 10.5743C27.9191 14.1312 21.9636 16.2277 15.7792 16.6443L15.0147 16.6946C14.3693 16.7358 13.8795 17.2943 13.9207 17.9398C13.9619 18.5577 14.4791 19.0338 15.0925 19.0338C15.12 19.0338 15.1429 19.0338 15.1703 19.0292L15.9302 18.9835C22.5449 18.5394 28.9124 16.2964 34.3506 12.4924L37.3582 10.3867L40.3702 12.4924C43.6158 14.7675 47.1955 16.4886 51.0087 17.601C51.6312 17.7841 52.2812 17.4271 52.4598 16.8091C52.6429 16.1865 52.2858 15.5365 51.6678 15.3534C48.1019 14.3097 44.7556 12.7029 41.7115 10.5743L38.704 8.46863C38.3011 8.18481 37.8296 8.04749 37.3582 8.04749ZM56.2684 16.3559C55.6229 16.2552 55.0324 16.7084 54.9363 17.3447C54.8447 17.9855 55.2842 18.5852 55.925 18.6768C56.868 18.8141 57.8293 18.9194 58.7861 18.9835L59.4773 19.0292C59.5048 19.0292 59.5322 19.0292 59.5597 19.0292C60.1685 19.0292 60.6858 18.5577 60.7224 17.9398C60.7682 17.2897 60.2784 16.7313 59.6375 16.6855L58.9417 16.6443C58.0491 16.5802 57.1473 16.4886 56.2684 16.3559ZM52.5925 26.2939C52.2904 26.2939 51.9929 26.4084 51.764 26.6418L35.0144 43.3868L26.4725 34.8404C26.0102 34.3826 25.2732 34.3826 24.8108 34.8404C24.3531 35.2982 24.3531 36.0397 24.8108 36.4975L34.1858 45.8725C34.4147 46.1014 34.7169 46.2158 35.0144 46.2158C35.3165 46.2158 35.6186 46.1014 35.8475 45.8725L53.4257 28.2944C53.8834 27.8366 53.8834 27.095 53.4257 26.6373C53.1922 26.4084 52.8946 26.2939 52.5925 26.2939ZM31.4988 57.9346C30.8533 57.9346 30.3269 58.461 30.3269 59.1064V61.4502C30.3269 62.1002 30.8533 62.6221 31.4988 62.6221C32.1488 62.6221 32.6707 62.1002 32.6707 61.4502V59.1064C32.6707 58.461 32.1488 57.9346 31.4988 57.9346ZM37.3582 57.9346C36.7127 57.9346 36.1863 58.461 36.1863 59.1064V61.4502C36.1863 62.1002 36.7127 62.6221 37.3582 62.6221C38.0082 62.6221 38.53 62.1002 38.53 61.4502V59.1064C38.53 58.461 38.0082 57.9346 37.3582 57.9346ZM43.2175 57.9346C42.5721 57.9346 42.0457 58.461 42.0457 59.1064V61.4502C42.0457 62.1002 42.5721 62.6221 43.2175 62.6221C43.8675 62.6221 44.3894 62.1002 44.3894 61.4502V59.1064C44.3894 58.461 43.8675 57.9346 43.2175 57.9346Z" fill="#E4B564"/>
</svg>

<svg width="75" height="75" fill="none" xmlns="http://www.w3.org/2000/svg"><path d="M37.358 2.344a3.52 3.52 0 00-2.197.773l-1.639 1.314a33.811 33.811 0 01-18.965 7.37l-4.244.284a3.516 3.516 0 00-3.273 3.722l.806 13.545c.92 12.758 6.743 24.403 16.397 32.794l10.808 9.407a3.53 3.53 0 002.307.852c.829 0 1.653-.284 2.307-.852l10.817-9.407c9.65-8.39 15.473-20.04 16.393-32.813l.805-13.522a3.524 3.524 0 00-3.277-3.726l-4.24-.284a33.812 33.812 0 01-18.969-7.37l-1.639-1.314a3.508 3.508 0 00-2.197-.773zm0 2.344c.261 0 .517.086.733.26l1.638 1.314a36.16 36.16 0 0020.28 7.878l4.243.284c.64.041 1.13.6 1.09 1.245l-.806 13.509c-.834 11.545-5.892 22.128-14.287 30.006v-.078a1.171 1.171 0 10-2.344 0v2.175l-9.778 8.5a1.18 1.18 0 01-1.538 0l-9.778-8.5v-2.175a1.171 1.171 0 10-2.343 0v.078c-8.391-7.878-13.454-18.457-14.287-29.992l-.806-13.527a1.176 1.176 0 011.094-1.24l4.239-.285a36.162 36.162 0 0020.284-7.878l1.634-1.314c.22-.174.476-.26.732-.26zm0 3.36c-.467 0-.943.137-1.341.42l-3.012 2.106a34.044 34.044 0 01-17.226 6.07l-.764.05c-.646.042-1.136.6-1.094 1.246a1.175 1.175 0 001.171 1.094c.028 0 .05 0 .078-.005l.76-.046a36.384 36.384 0 0018.42-6.49l3.008-2.106 3.012 2.105a36.125 36.125 0 0010.639 5.109 1.166 1.166 0 001.45-.792 1.173 1.173 0 00-.791-1.456 33.997 33.997 0 01-9.956-4.779L38.703 8.47a2.33 2.33 0 00-1.346-.422zm18.91 8.308a1.174 1.174 0 00-.343 2.32c.943.138 1.904.243 2.861.308l.691.045h.083c.608 0 1.126-.471 1.162-1.09a1.174 1.174 0 00-1.084-1.253l-.696-.042a34.601 34.601 0 01-2.674-.288zm-3.675 9.938c-.303 0-.6.114-.829.348l-16.75 16.745-8.542-8.547a1.177 1.177 0 00-1.661 0 1.172 1.172 0 000 1.657l9.375 9.376a1.175 1.175 0 001.662 0l17.578-17.579a1.172 1.172 0 00-.834-2zm-21.094 31.64c-.646 0-1.172.527-1.172 1.172v2.344a1.171 1.171 0 102.344 0v-2.344a1.17 1.17 0 00-1.172-1.171zm5.86 0c-.646 0-1.173.527-1.173 1.172v2.344a1.171 1.171 0 102.344 0v-2.344a1.17 1.17 0 00-1.172-1.171zm5.858 0c-.645 0-1.171.527-1.171 1.172v2.344a1.171 1.171 0 102.343 0v-2.344a1.17 1.17 0 00-1.172-1.171z" fill="#E4B564"/></svg>
